symbols/web/location_city/materialsymbolsrounded/location_city_wght700gradN25_20px.svg

<svg xmlns="http://www.w3.org/2000/svg" height="20" width="20"><path d="M4.625 17.875q-1.083 0-1.844-.76-.76-.761-.76-1.844V7.604q0-1.083.76-1.844Q3.542 5 4.625 5h2.063v.25q0 .625.031.5t.114-.573q.084-.448.24-.989.156-.542.365-.771l1.645-1.709q.375-.375.927-.375t.928.375l1.666 1.688q.334.375.542.854.208.479.208.979v2.875h2.042q1.083 0 1.844.761.76.76.76 1.843v4.563q0 1.083-.76 1.844-.761.76-1.844.76Zm0-2.604h1.458v-1.459H4.625Zm0-3.104h1.458v-1.459H4.625Zm0-3.105h1.458V7.604H4.625Zm4.667 6.209h1.458v-1.459H9.292Zm0-3.104h1.458v-1.459H9.292Zm0-3.105h1.458V7.604H9.292Zm0-3.104h1.458V4.5H9.292Zm4.646 9.313h1.458v-1.459h-1.458Zm0-3.104h1.458v-1.459h-1.458Z"/></svg>

<svg xmlns="http://www.w3.org/2000/svg" height="20" width="20"><path d="M4.625 17.875Q3.542 17.875 2.781 17.115Q2.021 16.354 2.021 15.271V7.604Q2.021 6.521 2.781 5.76Q3.542 5 4.625 5H6.688V5.25Q6.688 5.875 6.719 5.75Q6.75 5.625 6.833 5.177Q6.917 4.729 7.073 4.188Q7.229 3.646 7.438 3.417L9.083 1.708Q9.458 1.333 10.01 1.333Q10.562 1.333 10.938 1.708L12.604 3.396Q12.938 3.771 13.146 4.25Q13.354 4.729 13.354 5.229V8.104H15.396Q16.479 8.104 17.24 8.865Q18 9.625 18 10.708V15.271Q18 16.354 17.24 17.115Q16.479 17.875 15.396 17.875ZM4.625 15.271H6.083V13.812H4.625ZM4.625 12.167H6.083V10.708H4.625ZM4.625 9.062H6.083V7.604H4.625ZM9.292 15.271H10.75V13.812H9.292ZM9.292 12.167H10.75V10.708H9.292ZM9.292 9.062H10.75V7.604H9.292ZM9.292 5.958H10.75V4.5H9.292ZM13.938 15.271H15.396V13.812H13.938ZM13.938 12.167H15.396V10.708H13.938Z"/></svg>
